X: 18055
T: Humours Of Bahrain, The
R: polka
M: 2/4
K: Amajor
|:ef/e/ ce|ae ce|dB Bc/4d/4e/|fe c2|
ef/e/ ce|ae ce|dc/d/ eG|1 BA A2:|2 BA A3/2||
|:c/|ea a/g/a/b/|c'a ag|fB b>a|g/f/g/a/ be|
ea a/g/a/b/|c'a ac|dE GB|1 BA A3/2:|2 BA A2||

